X: 26569
T: Mick Duggan's
R: slide
M: 12/8
K: Dmajor
D2F AFD G2B d2B|A2F D2F (E3 E)FE|
D2F AFD G2B d2B|1 ABA GFE (D3 D)FE:|2 ABA GFE (D3 D2)d||
d3 d2B =c3c2A|BGB d2B A3AFE|
D2F AFD G2B d2B|1 ABA GFE D3 D2d:|2 ABA GFE D3 DFE||

